!!!OTL: ES IST EIN SCHUSS GEFALLEN
!!!ARE: Europa, Mitteleuropa, Deutschland
!!!SCT: B0685
!!!YEM: Copyright 1995, estate of Helmut Schaffrath.
**kern
*ICvox
*Ivox
*M2/4
*k[f#c#]
*D:
{8A
=1
8d
8d
8e
8e
=2
4f#
8d}
{8a
=3
8a
8f#
8b
8a
=4
4a
8r}
{8dd
=5
8dd
8a
8a
8a
=6
4a
8f#}
{8a
=7
8f#
8d
8e
8A
=8
4d
8r}
==
!!!AGN: Scherz - Lied
!!!ONB: ESAC (Essen Associative Code) Database: BOEHME
!!!AMT: simple duple
!!!AIN: vox
!!!EED: Helmut Schaffrath
!!!EEV: 1.0
*-
